X:1
T:Las Dos Hermanitas
T:Las Dos Hermanitas
T:Dos valses
T:Francisco Tárrega (1852 - 1909)
C:Francisco Tárrega
%%score ( 1 2 3 )
L:1/8
Q:1/4=180
M:3/4
K:A
V:1 treble-8 nm="Classical Guitar" snm="Guit."
V:2 treble-8 
V:3 treble-8 
V:1
"^Vivace" e'2 e'e' e'2 | (f'e') d'b e2- | e2 e2 ^e2 | f2 g2 z2 | e'2 e'e' e'2 | (f'e') d'b e2- | %6
 e2 [Bg]2 [^B^^g]2 | [c^a]2 [dgb]2 z2 | e'2 (f'e') d'b | e2 (fe) dB | E2 (FE) DB, | E,6 | e'6 | %13
"^VII" f'"^XII"e'"^VII" d'"^XII"b"^IX" g"^VII"e |"^XII" !fermata!z2 e2 ^e2 |: %15
S !-(!f2 !-)!d'2"^VII" d'2- | d'2{/d'} c'2 b2 |"^V"{/bc'} b2 a2 a2 | z2{/ga} g2"^II" f2 | %19
{/fg} f2 d2 d2 | z2 [dg]2"^II" [df]2 |{/fg} f2 c2 c2 | z2 e2 ^e2 | !-(!f2 !-)!d'2"^VII" d'2- | %24
 d'2{/d'} c'2 b2 | b2"^V" a2 a2 |1 z2"^II" f2 ^^f2 |"^IV" g2 g2 e2 | z2 ^d3 e |"^II" c2 z c c2 | %30
 !fermata!z2 e2 ^e2 :|2 z2"^II" g2 f2 || z"^II" E Ac (3eac' |"^XII" e'4 [dg]2 | %34
"^II" [ca]2 z [ca] [ca]2!fine! |]:[K:E] z2 (gb) (ef) | g2{/d'} c'2{/d'} c'2 |"^IV" z (b g)e BG | %38
 z2 [ea]2 [da]2 | z2 (ag) (fe) | e2"^II" d2 d2 | z f dA FB, | z2"^V" a2"^IV" g2 | z2 (gb) (ef) | %44
 g2{/d'} c'2{/d'} c'2 |"^IV" z (b g)e BG |!-(!{/g} !-)!d'2 d'2 c'2 | z"^II" c (gf) cA | Be GB EG | %49
 z4"^II" [FAd]2 | [GBe]2 z [GBe] [GBe]2 ::[K:D] z2 z2!-(!{/f} !-)!a2 | a6 | a6 | a6 | cc' Bb Aa | %56
 a6 | a6 | a6 | dd' cc' Bb | a6 | a6 | a6 | (c'd') (^d'e') (f'e') | f6 | ^g6 | %66
"^II" [Aca]2 z [Aca] [Aca]2 :: z2!-(!{/f} !-)!a2 ^a2 |"^VII" b2 [Agc']2 d'2 | %69
!-(!{/d'} !-)!f'2 e'2 !-(!c'2 |!-)!{/a} a6 | z2{/e'f'} e'2 !-(!d'2 | !-)!g6 | %73
 z2{/d'e'} d'2 !-(!c'2 | !-)!f6 | z2!-(!{/d} !-)!a2 ^a2 |"^VII" b2 c'2 d'2 |{/e'f'} e'2 d'2 c'2 | %78
"^IX" f'6 |"^VII" z A ^df (=c'b) |!-(!{/f} !-)!a2 g2 g2 | z2 f3 e | [FAd]2 z d [FAd]2 :| %83
 z2 e2 ^e2!D.S.! |] %84
V:2
 x6 | x6 | z2 [Bd]2 [Bd]2 | [Bd]2 [Bd]2 z2 | x6 | x6 | z2 E,2 E,2 | E,2 E,2 z2 | x6 | x6 | x6 | %11
 x6 | x6 | x6 | !fermata!E6 |: E,6 | E6 | A,6 | E,6 | B,6 | E,6 | A,6 | E,6 | E,6 | E6 | A,6 |1 %26
 A,6 | G,6 | G,6 | [CE]2 z [CE] [CE]2 | x6 :|2 ^D6 || E,4 z2 | z4 [E,E]2 | [A,E]2 z E [A,E]2 |]: %35
[K:E] x6 | E,6 | G,6 | [FA]4 B2 | B,6 | F,6 | B,6 | E,6 | E,6 | E,6 | G,6 | A,6 | A,6 | B,6 | %49
 B,4 B,2 | E,2 z2 E,2 ::[K:D] x6 | z2 [df]2 [df]2 | z2 [=cf]2 [cf]2 | z2 [cg]2 [cg]2 | c2 B2 A2 | %56
 z2 [Gc]2 [Gc]2 | z2 [Gc]2 [Gc]2 | z2 [Fd]2 [Fd]2 | d2 c2 B2 | z2 [df]2 [df]2 | z2 [=cf]2 [cf]2 | %62
 z2 [ce]2 [ce]2 | x6 | z2 [B^d]2 [Bd]2 | z2 [EBd]2 [EBd]2 | A,2 z2 A,2 :: x6 | x6 | z2 G2 z2 | %70
 z2 [df]2 [df]2 | x6 | z2"^II" [Ac]2 [Ac]2 | x6 | z2 [Ad]2 [Ad]2 | x6 | x6 | x6 | z2 [e^a]2 [ea]2 | %79
 x6 | z2 B2 B2 | z2 [Gc]4 | D2 z2 D2 :| x6 |] %84
V:3
 x6 | x6 | x6 | x6 | x6 | x6 | x6 | x6 | x6 | x6 | x6 | x6 | x6 | x6 | x6 |: z2 z2 f2- | f2 e2 d2 | %17
 z2 [ce]2 [ce]2 | x2 c2 c2 | z2 B2 B2 | x6 | z2 A2 A2 | x6 | x4 f2- | f2 e2 d2 | z2 [ce]2 [ce]2 |1 %26
 x2 [Ac]2 [Ac]2 | z2 [ce]2 [Gc]2 | z2 [F^B]4 | x6 | x6 :|2 z2 [Ac]2 [Ac]2 || x6 | x6 | x6 |]: %35
[K:E] x6 | z2 B2 B2 | x6 | x6 | x6 | z2 [FA]2 [FA]2 | x6 | z2 [ce]2 [Be]2 | x6 | z2 B2 B2 | x6 | %46
 z2 [fa]2 [fa]2 | x6 | x6 | x6 | x6 ::[K:D] x6 | D6 | ^D6 | E6 | x6 | C6 | A,6 | D6 | x6 | D6 | %61
 ^D6 | E6 | x6 | E,6 | E,6 | x6 :: A,6 | E6 | A,6 | D6 | x6 | E,6 | A,6 | D6 | D6 | [Ag]6 | [GB]6 | %78
 F6 | B,6 | E,6 | A,6 | x6 :| x6 |] %84

